svg/Union.svg

<svg width="40" height="35" viewBox="0 0 40 35" fill="none" xmlns="http://www.w3.org/2000/svg">
<path fill-rule="evenodd" clip-rule="evenodd" d="M17.1136 2.93452H16.977C16.7671 2.92181 16.5571 2.91672 16.3471 2.91163H16.3471H16.3269H15.8918C15.4946 2.91163 15.0898 2.92181 14.6876 2.94215C14.6573 2.93994 14.6269 2.93994 14.5966 2.94215C10.9522 3.14863 7.38171 4.05951 4.08049 5.62492L3.6479 5.83344V27.9746L4.65979 27.6313C5.54773 27.3261 6.49384 27.0515 7.47285 26.7972C10.1193 26.1178 12.8367 25.7567 15.568 25.7216V28.6306C15.2062 28.6332 14.8546 28.6434 14.503 28.6612H14.4195C12.3175 28.7765 10.2317 29.0967 8.19129 29.6173C5.60716 30.2643 3.11433 31.2357 0.771606 32.5086V4.11189C3.20469 2.69275 5.82533 1.62687 8.55557 0.945963C10.9527 0.327052 13.4169 0.00930695 15.8918 0H16.3193C16.8303 0.0127146 17.3287 0.0356008 17.7967 0.0712015C19.0297 0.157776 20.2528 0.352628 21.4521 0.653528V3.51685C20.2874 3.24551 19.1032 3.06695 17.9105 2.98284C17.8863 2.98079 17.8621 2.97872 17.8379 2.97666C17.5911 2.95561 17.344 2.93452 17.1136 2.93452ZM22.1528 5.86138C22.7877 5.9097 23.4455 5.93259 24.1108 5.93259C26.7125 5.92307 29.3031 5.59083 31.8239 4.94339C34.4068 4.29396 36.8986 3.32178 39.2411 2.04956V29.9402C36.8067 31.3585 34.1853 32.4243 31.4546 33.1061C29.0571 33.7227 26.5931 34.0395 24.1184 34.0496C22.2433 34.0647 20.3737 33.8443 18.553 33.3935V5.32229C18.983 5.42146 19.4257 5.51301 19.876 5.58929C20.6147 5.7139 21.3939 5.80544 22.1528 5.86138ZM36.3471 6.07753L35.3352 6.41828C34.4042 6.73106 33.4657 7.01078 32.5221 7.25998C29.7749 7.96596 26.9514 8.3281 24.1158 8.33818C23.4556 8.33818 22.8485 8.32038 22.2616 8.28224L21.4546 8.22883V28.3178V31.0057L22.1477 31.0667C22.7903 31.1227 23.4531 31.1506 24.1209 31.1506C26.3544 31.1412 28.5781 30.8533 30.7412 30.2937C32.5223 29.8469 34.2552 29.2243 35.9145 28.4348L36.3471 28.2263V6.07753Z" fill="#AFB1B8"/>
</svg>

<svg xmlns="http://www.w3.org/2000/svg" width="40" height="35" fill="none"><path fill="#AFB1B8" fill-rule="evenodd" d="M17.114 2.935h-.137c-.21-.013-.42-.018-.63-.023h-.455c-.397 0-.802.01-1.204.03a.625.625 0 0 0-.091 0A28.275 28.275 0 0 0 4.08 5.625l-.432.208v22.142l1.012-.344c.888-.305 1.834-.58 2.813-.834a34.328 34.328 0 0 1 8.095-1.075v2.909c-.362.002-.713.012-1.065.03h-.084a32.36 32.36 0 0 0-6.228.956 31.634 31.634 0 0 0-7.42 2.892V4.112A29.727 29.727 0 0 1 8.557.946 29.793 29.793 0 0 1 15.892 0h.427c.511.013 1.01.036 1.478.071a21.09 21.09 0 0 1 3.655.583v2.863a22.623 22.623 0 0 0-3.542-.534l-.072-.006c-.247-.021-.494-.042-.724-.042Zm5.039 2.926c.635.049 1.293.072 1.958.072a31.467 31.467 0 0 0 7.713-.99A31.777 31.777 0 0 0 39.24 2.05v27.89a29.815 29.815 0 0 1-7.786 3.166 29.943 29.943 0 0 1-7.337.944 22.405 22.405 0 0 1-5.565-.656V5.322c.43.1.873.191 1.323.267.739.125 1.518.216 2.277.272Zm14.194.217-1.012.34c-.93.313-1.87.593-2.813.842a34.263 34.263 0 0 1-8.406 1.078c-.66 0-1.267-.018-1.854-.056l-.807-.053V31.006l.693.06c.642.057 1.305.085 1.973.085a26.884 26.884 0 0 0 6.62-.857 27.764 27.764 0 0 0 5.173-1.86l.433-.208V6.078Z" clip-rule="evenodd"/></svg>
